svg/OSM-icons/leisure #21610b °ffffff !label=enleisure,deFreizeit/21137;leisure=nature_reserve;!name=;!label=ennature reserve,deNaturschutz- gebiet.svg

<svg xmlns="http://www.w3.org/2000/svg" viewBox="0 0 580 580" enable-background="new 0 0 580 580"><path fill="#111" stroke="#eee" stroke-width="3.408" d="m66.28 1.768c-41.34 0-64.57 21.371-64.57 65.04v450.12c0 40.844 20.894 62.23 62.19 62.23h452.02c41.31 0 62.23-20.316 62.23-62.23v-450.12c0-42.601-20.923-65.04-63.52-65.04-.003 0-448.49-.143-448.35 0z"/><g fill="#fff"><path d="m453.61 251.43c0-24.511-14.698-45.578-35.756-54.902 2.701-6.831 4.202-14.267 4.202-22.06 0-33.15-26.876-60.03-60.03-60.03-17.66 0-33.537 7.628-44.521 19.767-10.61-16.951-29.438-28.23-50.909-28.23-30.731 0-56.05 23.1-59.59 52.879-6.422-2.345-13.354-3.625-20.587-3.625-33.15 0-60.03 26.875-60.03 60.03 0 22.485 12.371 42.07 30.67 52.35-9.497 10.618-15.278 24.629-15.278 39.997 0 33.15 26.876 60.03 60.03 60.03 15.334 0 29.32-5.758 39.929-15.219-2.489 37.967-10.36 98.1-35.17 121.61h128.26c0 0-27.639-56.65-19.619-108.99 8.132 4.115 17.318 6.447 27.06 6.447 33.15 0 60.03-26.875 60.03-60.03 0-.213-.014-.422-.016-.635 29.03-4.212 51.33-29.19 51.33-59.39"/><path d="m290 556.17c-71.1 0-137.94-27.686-188.21-77.958-50.27-50.27-77.959-117.11-77.959-188.21s27.687-137.94 77.959-188.21c50.27-50.27 117.11-77.959 188.21-77.959s137.94 27.686 188.21 77.959c50.27 50.27 77.958 117.11 77.958 188.21s-27.686 137.94-77.958 188.21c-50.27 50.27-117.11 77.958-188.21 77.958m0-503.39c-130.81 0-237.23 106.42-237.23 237.23s106.42 237.23 237.23 237.23c130.81 0 237.23-106.42 237.23-237.23s-106.42-237.23-237.23-237.23"/></g></svg>

<?xml version="1.0" encoding="utf-8"?>
<!-- Generator: Adobe Illustrator 15.0.0, SVG Export Plug-In . SVG Version: 6.00 Build 0)  -->
<!DOCTYPE svg PUBLIC "-//W3C//DTD SVG 1.1//EN" "http://www.w3.org/Graphics/SVG/1.1/DTD/svg11.dtd">
<svg version="1.1" xmlns="http://www.w3.org/2000/svg" xmlns:xlink="http://www.w3.org/1999/xlink" x="0px" y="0px" width="580px"
	 height="580px" viewBox="0 0 580 580" enable-background="new 0 0 580 580" xml:space="preserve">
<g id="Layer_2">
	<g id="g1327">
		<path id="path1329" fill="#111111" stroke="#EEEEEE" stroke-width="3.408" d="M66.275,1.768
			c-41.335,0-64.571,21.371-64.571,65.036v450.123c0,40.844,20.894,62.229,62.192,62.229H515.92
			c41.307,0,62.229-20.316,62.229-62.229V66.804c0-42.601-20.923-65.036-63.522-65.036C514.624,1.768,66.133,1.625,66.275,1.768z"/>
	</g>
</g>
<g id="svg2" inkscape:output_extension="org.inkscape.output.svg.inkscape" xmlns:cc="http://creativecommons.org/ns#" xmlns:svg="http://www.w3.org/2000/svg" xmlns:sodipodi="http://sodipodi.sourceforge.net/DTD/sodipodi-0.dtd" xmlns:rdf="http://www.w3.org/1999/02/22-rdf-syntax-ns#" xmlns:dc="http://purl.org/dc/elements/1.1/" xmlns:inkscape="http://www.inkscape.org/namespaces/inkscape" sodipodi:docname="waste_bin.svg" inkscape:version="0.46" sodipodi:version="0.32">
	<g>
		<path fill="#FFFFFF" d="M453.609,251.425c0-24.511-14.698-45.578-35.756-54.902c2.701-6.831,4.202-14.267,4.202-22.059
			c0-33.153-26.876-60.029-60.028-60.029c-17.66,0-33.537,7.628-44.521,19.767c-10.61-16.951-29.438-28.232-50.909-28.232
			c-30.731,0-56.053,23.098-59.59,52.879c-6.422-2.345-13.354-3.625-20.587-3.625c-33.153,0-60.029,26.875-60.029,60.029
			c0,22.485,12.371,42.071,30.67,52.355c-9.497,10.618-15.278,24.629-15.278,39.997c0,33.152,26.876,60.029,60.029,60.029
			c15.334,0,29.318-5.758,39.929-15.219c-2.489,37.967-10.36,98.098-35.173,121.613h128.261c0,0-27.639-56.65-19.619-108.994
			c8.132,4.115,17.318,6.447,27.055,6.447c33.152,0,60.029-26.875,60.029-60.029c0-0.213-0.014-0.422-0.016-0.635
			C431.308,306.605,453.609,281.624,453.609,251.425z"/>
	</g>
	<g>
		<path fill="#FFFFFF" d="M290,556.167c-71.096,0-137.937-27.686-188.208-77.958C51.52,427.938,23.833,361.096,23.833,290
			s27.687-137.936,77.959-188.208C152.064,51.519,218.904,23.833,290,23.833s137.937,27.686,188.208,77.959
			c50.272,50.272,77.958,117.112,77.958,188.208s-27.686,137.938-77.958,188.209C427.938,528.481,361.097,556.167,290,556.167z
			 M290,52.774C159.193,52.774,52.774,159.192,52.774,290S159.193,527.227,290,527.227c130.807,0,237.226-106.419,237.226-237.227
			S420.808,52.774,290,52.774z"/>
	</g>
</g>
</svg>
